X:1
T:Aussie Stevie  "CYMRU"
M:C|
L:1/8
Q:80
C:P/M B. Livingstone
S:Hornpipe
K:HP
|: a | \
{fg}f{g}e/2f/2{gBG}B{g}d/2B/2 | \
{g}((3c/2B/2A/2){g}e/2A/2{g}A/2e/2{g}c/2{d}A/2 | \
{g}((3f/2e/2{g}f/2g/2a/2)f/2e/2{g}d/2B/2 |
{g}c/2{d}A/2{g}e/2c/2{g}B/2{d}B/2{e}B/2{d}c/2 | | \
{g}((3f/2e/2{g}f/2g/2a/2)f/2e/2{g}d/2B/2 | \
{g}c/2{d}A/2{g}e/2A/2{g}A/2e/2{g}c/2{d}A/2 |
{g}f/2d/2{g}d/2{G}d/2{g}e/2d/2{g}c/2{d}A/2 | \
{g}B/2{d}B/2{e}B/2A/2{GdG}B :: \
{g}A/2B/2 |
{Gdc}d{g}f/2d/2g/2f/2{g}e/2d/2 | \
{g}((3c/2B/2A/2){g}e/2A/2{g}A/2e/2{g}c/2{d}A/2 | \
{g}d/2{G}d/2{g}f/2d/2{g}e/2d/2{g}c/2{d}A/2 |
{g}B/2d/2{G}d/2c/2{Gdc}d{g}A/2B/2 | | \
{Gdc}d{g}f/2d/2g/2f/2{g}e/2d/2 | \
{g}((3c/2B/2A/2){g}e/2A/2{g}A/2e/2{g}c/2{d}A/2 |
{g}f/2d/2{g}d/2{G}d/2{g}e/2d/2{g}c/2{d}A/2 | \
{g}B/2{d}B/2{e}B/2A/2{GdG}B :: \
{ag}a |
f/2B/2a/2B/2{G}B/2a/2B/2{G}B/2 | \
{g}B/2c/2{g}c/2B/2{g}((3A/2e/2{g}c/2B/2A/2) | \
{g}f/2B/2a/2B/2{G}B/2a/2B/2{G}B/2 |
{g}((3c/2B/2A/2){g}e/2c/2{g}B/2{d}B/2{e}B/2{d}c/2 | | \
f/2B/2a/2B/2{G}B/2a/2B/2{G}B/2 | \
{g}B/2c/2{g}c/2B/2{g}((3A/2e/2{g}c/2B/2A/2) |
{g}f/2d/2{g}d/2{G}d/2{g}e/2d/2{g}c/2{d}A/2 | \
{g}B/2{d}B/2{e}B/2A/2{GdG}B :: \
{g}A/2B/2 |
{g}d/2A/2{g}f/2A/2{d}A/2f/2A/2{d}A/2 | \
e/2{g}A/2g/2A/2{d}A/2g/2A/2{d}A/2 | \
{g}f/2d/2{g}d/2{G}d/2{g}e/2d/2{g}c/2{d}A/2 |
{g}B/2d/2{G}d/2c/2{Gdc}d{g}A/2B/2 | | \
{g}d/2A/2{g}f/2A/2{d}A/2f/2A/2{d}A/2 | \
e/2{g}A/2g/2A/2{d}A/2g/2A/2{d}A/2 |
{g}f/2d/2{g}d/2{G}d/2{g}e/2d/2{g}c/2{d}A/2 | \
{g}B/2{d}B/2{e}B/2A/2{GdG}B :|
